images/avatar-2.svg

<svg width="1080" height="1080" viewBox="0 0 1080 1080" fill="none"
    xmlns="http://www.w3.org/2000/svg">
    <g id="avatar-2">
        <g id="body">
            <path id="Vector" d="M412.21 714.19C361 782.8 330.06 770.05 303.68 750.37C277.3 730.69 272.12 708.49 308.75 656.84C358.25 587.02 445.51 549.44 457.07 554.33C487.38 567.17 463.37 645.58 412.21 714.19Z" fill="white" stroke="#F68B62" stroke-width="8" stroke-linecap="round" stroke-linejoin="round"/>
            <g id="Vector_2">
                <path d="M305.43 705C296.43 713.55 293.09 725.81 293.52 738Z" fill="#F68B62"/>
                <path d="M305.43 705C296.43 713.55 293.09 725.81 293.52 738" stroke="#F68B62" stroke-width="8" stroke-linecap="round" stroke-linejoin="round"/>
            </g>
            <g id="Vector_3">
                <path d="M322.43 721C312.92 728.89 311.52 738.46 310.43 750Z" fill="#F68B62"/>
                <path d="M322.43 721C312.92 728.89 311.52 738.46 310.43 750" stroke="#F68B62" stroke-width="8" stroke-linecap="round" stroke-linejoin="round"/>
            </g>
            <path id="Vector_4" d="M667.79 714.19C718.96 782.8 749.94 770.05 776.32 750.37C802.7 730.69 807.88 708.49 771.25 656.84C721.75 587 634.49 549.44 622.93 554.33C592.62 567.17 616.63 645.58 667.79 714.19Z" fill="white" stroke="#F68B62" stroke-width="8" stroke-linecap="round" stroke-linejoin="round"/>
            <g id="Vector_5">
                <path d="M774.57 705C783.57 713.55 786.91 725.81 786.48 738Z" fill="#F68B62"/>
                <path d="M774.57 705C783.57 713.55 786.91 725.81 786.48 738" stroke="#F68B62" stroke-width="8" stroke-linecap="round" stroke-linejoin="round"/>
            </g>
            <g id="Vector_6">
                <path d="M757.57 721C767.08 728.89 768.48 738.46 769.57 750Z" fill="#F68B62"/>
                <path d="M757.57 721C767.08 728.89 768.48 738.46 769.57 750" stroke="#F68B62" stroke-width="8" stroke-linecap="round" stroke-linejoin="round"/>
            </g>
            <g id="legs">
                <path id="Vector_7" d="M567.82 925.32C555.48 1010.02 586.41 1022.91 618.98 1027.65C651.55 1032.39 670.91 1020.34 681.53 957.93C695.89 873.55 660.77 785.28 649.13 780.57C618.62 768.21 580.15 840.63 567.82 925.32Z" fill="white" stroke="#F68B62" stroke-width="8" stroke-linecap="round" stroke-linejoin="round"/>
                <path id="Vector_8" d="M512.18 925.32C524.52 1010.02 493.59 1022.91 461.02 1027.65C428.45 1032.39 409.09 1020.34 398.47 957.93C384.11 873.55 419.23 785.28 430.87 780.57C461.38 768.21 499.85 840.63 512.18 925.32Z" fill="white" stroke="#F68B62" stroke-width="8" stroke-linecap="round" stroke-linejoin="round"/>
            </g>
            <path id="torso" d="M692.67 665.7C674.92 588.75 621.58 531 540 531C458.42 531 405.08 588.75 387.33 665.7C377.18 709.7 377.23 759.4 404.63 796.51C427.03 826.85 461.91 844.42 498.4 851.26C525.912 856.22 554.088 856.22 581.6 851.26C618.09 844.42 652.97 826.85 675.37 796.51C702.77 759.4 702.82 709.7 692.67 665.7Z" fill="white" stroke="#F68B62" stroke-width="8" stroke-linecap="round" stroke-linejoin="round"/>
        </g>
        <g id="ears-2">
            <path id="Vector_9" d="M785.8 192.9C784.92 203.79 783.13 214.71 781.67 225.03C776.44 261.9 763.67 299.64 735.79 326.4C734.89 327.27 733.96 328.15 733.01 329C727.594 310.297 720.125 292.251 710.74 275.19C684.894 228.138 645.968 189.583 598.67 164.19C624.77 150.35 654.12 140.34 683.12 133.19C707.8 127.12 740.7 117.7 764.36 131.47C776.17 138.34 782.94 151.47 785.12 164.63C786.486 173.991 786.714 183.484 785.8 192.9Z" fill="white" stroke="#F68B62" stroke-width="8" stroke-linecap="round" stroke-linejoin="round"/>
            <path id="Vector_10" d="M737 240.73C733.218 255.611 727.647 269.979 720.41 283.52C706.319 248.77 686.257 216.754 661.13 188.92C663.49 187.33 665.34 186.11 665.84 185.83C680.216 177.629 695.95 172.08 712.29 169.45C718.58 168.45 730.17 167.94 736.49 170.25C757.6 178 741.11 224.6 737 240.73Z" fill="white" stroke="#F68B62" stroke-width="8" stroke-linecap="round" stroke-linejoin="round"/>
            <path id="Vector_11" d="M294.2 192.9C295.08 203.79 296.87 214.71 298.33 225.03C303.56 261.9 316.33 299.64 344.21 326.4C345.11 327.27 346.04 328.15 346.99 329C352.406 310.297 359.875 292.251 369.26 275.19C395.106 228.138 434.032 189.583 481.33 164.19C455.23 150.35 425.88 140.34 396.88 133.19C372.2 127.12 339.3 117.7 315.64 131.47C303.83 138.34 297.06 151.47 294.88 164.63C293.514 173.991 293.286 183.484 294.2 192.9Z" fill="white" stroke="#F68B62" stroke-width="8" stroke-linecap="round" stroke-linejoin="round"/>
            <path id="Vector_12" d="M343 240.73C346.782 255.611 352.353 269.979 359.59 283.52C373.681 248.77 393.743 216.754 418.87 188.92C416.51 187.33 414.66 186.11 414.16 185.83C399.784 177.629 384.05 172.08 367.71 169.45C361.42 168.45 349.83 167.94 343.51 170.25C322.4 178 338.89 224.6 343 240.73Z" fill="white" stroke="#F68B62" stroke-width="8" stroke-linecap="round" stroke-linejoin="round"/>
        </g>
        <g id="face-2">
            <path id="face-2_2" d="M755.85 397.28C751.573 387.307 749.994 376.386 751.27 365.61C763.92 264.61 695.55 165.24 596.32 139.71C559.332 130.55 520.668 130.55 483.68 139.71C384.45 165.24 316.08 264.64 328.73 365.61C330.006 376.386 328.427 387.307 324.15 397.28C320.075 406.864 317.957 417.166 317.92 427.58C317.92 498.5 417.35 562.93 540 562.93C662.65 562.93 762.08 498.5 762.08 427.58C762.043 417.166 759.925 406.864 755.85 397.28Z" fill="white" stroke="#F68B62" stroke-width="9" stroke-linecap="round" stroke-linejoin="round"/>
            <path id="Vector_13" d="M365.18 411.45C365.18 411.45 325.23 372.88 297.09 377.91" stroke="#F68B62" stroke-width="8" stroke-linecap="round" stroke-linejoin="round"/>
            <path id="Vector_14" d="M368 429C369.57 428.59 317.2 411.33 290.83 429.09" stroke="#F68B62" stroke-width="8" stroke-linecap="round" stroke-linejoin="round"/>
            <path id="Vector_15" d="M371.53 447.5C367.9 446.66 317.78 442.23 301.63 476" stroke="#F68B62" stroke-width="8" stroke-linecap="round" stroke-linejoin="round"/>
            <path id="Vector_16" d="M714.82 411.45C714.82 411.45 754.77 372.88 782.91 377.91" stroke="#F68B62" stroke-width="8" stroke-linecap="round" stroke-linejoin="round"/>
            <path id="Vector_17" d="M712 429C710.43 428.59 762.8 411.33 789.17 429.09" stroke="#F68B62" stroke-width="8" stroke-linecap="round" stroke-linejoin="round"/>
            <path id="Vector_18" d="M708.47 447.5C712.1 446.66 762.22 442.23 778.37 476" stroke="#F68B62" stroke-width="8" stroke-linecap="round" stroke-linejoin="round"/>
        </g>
        <g id="eyes-2">
            <path id="Vector_19" d="M635.15 442.33C607.15 448.56 580.47 435.65 575.55 413.51C570.63 391.37 589.32 368.38 617.32 362.14C645.32 355.9 672 368.83 676.91 391C681.82 413.17 663.14 436.1 635.15 442.33Z" fill="#F68B62" stroke="#F68B62" stroke-width="8" stroke-linecap="round" stroke-linejoin="round"/>
            <path id="Vector_20" d="M604.92 393.71C610.697 393.71 615.38 389.895 615.38 385.19C615.38 380.484 610.697 376.67 604.92 376.67C599.143 376.67 594.46 380.484 594.46 385.19C594.46 389.895 599.143 393.71 604.92 393.71Z" fill="white" stroke="#F68B62" stroke-width="8" stroke-linecap="round" stroke-linejoin="round"/>
            <path id="Vector_21" d="M504.45 413.51C499.53 435.65 472.84 448.56 444.85 442.33C416.86 436.1 398.16 413.11 403.09 391C408.02 368.89 434.69 356 462.68 362.18C490.67 368.36 509.37 391.37 504.45 413.51Z" fill="#F68B62" stroke="#F68B62" stroke-width="8" stroke-linecap="round" stroke-linejoin="round"/>
            <path id="Vector_22" d="M475.93 393.71C481.707 393.71 486.39 389.895 486.39 385.19C486.39 380.484 481.707 376.67 475.93 376.67C470.153 376.67 465.47 380.484 465.47 385.19C465.47 389.895 470.153 393.71 475.93 393.71Z" fill="white" stroke="#F68B62" stroke-width="8" stroke-linecap="round" stroke-linejoin="round"/>
            <path id="mouth" d="M556.86 471.17C556.3 473.61 554.58 474.7 551.43 475.58C548.75 476.34 545.3 476.26 543.14 474.65C542.152 473.872 541.356 472.878 540.812 471.744C540.267 470.61 539.99 469.367 540 468.11V468.23C540.012 469.489 539.735 470.734 539.191 471.87C538.646 473.005 537.849 474.001 536.86 474.78C534.7 476.39 531.25 476.46 528.57 475.71C525.42 474.83 523.7 473.71 523.14 471.3" stroke="#F68B62" stroke-width="8" stroke-linecap="round" stroke-linejoin="round"/>
            <path id="Vector_23" d="M551.49 447.2C551.49 449.99 546.35 459.31 540 459.31C533.65 459.31 528.51 450 528.51 447.2C528.51 442.96 533.65 443.29 540 443.29C546.35 443.29 551.49 443 551.49 447.2Z" fill="white" stroke="#F68B62" stroke-width="8" stroke-linecap="round" stroke-linejoin="round"/>
        </g>
    </g>
</svg>

<svg id="panda_1" data-name="panda 1" xmlns="http://www.w3.org/2000/svg" viewBox="0 0 1080 1080"><defs><style>.cls-1,.cls-3{fill:#fff;}.cls-1,.cls-2,.cls-3,.cls-4{stroke:#f68b62;stroke-linecap:round;stroke-linejoin:round;}.cls-1,.cls-2,.cls-4{stroke-width:8px;}.cls-2{fill:#f68b62;}.cls-3{stroke-width:9px;}.cls-4{fill:none;}</style></defs><path class="cls-1" d="M412.21,714.19C361,782.8,330.06,770.05,303.68,750.37s-31.56-41.88,5.07-93.53c49.5-69.82,136.76-107.4,148.32-102.51C487.38,567.17,463.37,645.58,412.21,714.19Z"/><path class="cls-2" d="M305.43,705c-9,8.55-12.34,20.81-11.91,33"/><path class="cls-2" d="M322.43,721c-9.51,7.89-10.91,17.46-12,29"/><path class="cls-1" d="M667.79,714.19c51.17,68.61,82.15,55.86,108.53,36.18s31.56-41.88-5.07-93.53C721.75,587,634.49,549.44,622.93,554.33,592.62,567.17,616.63,645.58,667.79,714.19Z"/><path class="cls-2" d="M774.57,705c9,8.55,12.34,20.81,11.91,33"/><path class="cls-2" d="M757.57,721c9.51,7.89,10.91,17.46,12,29"/><g id="legs"><path class="cls-1" d="M567.82,925.32c-12.34,84.7,18.59,97.59,51.16,102.33s51.93-7.31,62.55-69.72c14.36-84.38-20.76-172.65-32.4-177.36C618.62,768.21,580.15,840.63,567.82,925.32Z"/><path class="cls-1" d="M512.18,925.32c12.34,84.7-18.59,97.59-51.16,102.33s-51.93-7.31-62.55-69.72c-14.36-84.38,20.76-172.65,32.4-177.36C461.38,768.21,499.85,840.63,512.18,925.32Z"/></g><path id="torso" class="cls-1" d="M692.67,665.7C674.92,588.75,621.58,531,540,531S405.08,588.75,387.33,665.7c-10.15,44-10.1,93.7,17.3,130.81,22.4,30.34,57.28,47.91,93.77,54.75a234.46,234.46,0,0,0,83.2,0c36.49-6.84,71.37-24.41,93.77-54.75C702.77,759.4,702.82,709.7,692.67,665.7Z"/><path class="cls-1" d="M785.8,192.9c-.88,10.89-2.67,21.81-4.13,32.13-5.23,36.87-18,74.61-45.88,101.37-.9.87-1.83,1.75-2.78,2.6a264,264,0,0,0-22.27-53.81,277.78,277.78,0,0,0-112.07-111c26.1-13.84,55.45-23.85,84.45-31,24.68-6.07,57.58-15.49,81.24-1.72,11.81,6.87,18.58,20,20.76,33.16A117.29,117.29,0,0,1,785.8,192.9Z"/><path class="cls-1" d="M737,240.73a190.15,190.15,0,0,1-16.59,42.79,321.44,321.44,0,0,0-59.28-94.6c2.36-1.59,4.21-2.81,4.71-3.09a138,138,0,0,1,46.45-16.38c6.29-1,17.88-1.51,24.2.8C757.6,178,741.11,224.6,737,240.73Z"/><path class="cls-1" d="M294.2,192.9c.88,10.89,2.67,21.81,4.13,32.13,5.23,36.87,18,74.61,45.88,101.37.9.87,1.83,1.75,2.78,2.6a264,264,0,0,1,22.27-53.81,277.78,277.78,0,0,1,112.07-111c-26.1-13.84-55.45-23.85-84.45-31-24.68-6.07-57.58-15.49-81.24-1.72-11.81,6.87-18.58,20-20.76,33.16A117.29,117.29,0,0,0,294.2,192.9Z"/><path class="cls-1" d="M343,240.73a190.15,190.15,0,0,0,16.59,42.79,321.44,321.44,0,0,1,59.28-94.6c-2.36-1.59-4.21-2.81-4.71-3.09a138,138,0,0,0-46.45-16.38c-6.29-1-17.88-1.51-24.2.8C322.4,178,338.89,224.6,343,240.73Z"/><path id="face-2" class="cls-3" d="M755.85,397.28a61.89,61.89,0,0,1-4.58-31.67c12.65-101-55.72-200.37-154.95-225.9a234.29,234.29,0,0,0-112.64,0c-99.23,25.53-167.6,124.93-154.95,225.9a61.89,61.89,0,0,1-4.58,31.67,78.16,78.16,0,0,0-6.23,30.3c0,70.92,99.43,135.35,222.08,135.35S762.08,498.5,762.08,427.58A78.16,78.16,0,0,0,755.85,397.28Z"/><path class="cls-2" d="M635.15,442.33c-28,6.23-54.68-6.68-59.6-28.82s13.77-45.13,41.77-51.37S672,368.83,676.91,391,663.14,436.1,635.15,442.33Z"/><ellipse class="cls-1" cx="604.92" cy="385.19" rx="10.46" ry="8.52"/><path class="cls-2" d="M504.45,413.51c-4.92,22.14-31.61,35.05-59.6,28.82S398.16,413.11,403.09,391s31.6-35,59.59-28.82S509.37,391.37,504.45,413.51Z"/><ellipse class="cls-1" cx="475.93" cy="385.19" rx="10.46" ry="8.52"/><path id="mouth" class="cls-4" d="M556.86,471.17c-.56,2.44-2.28,3.53-5.43,4.41-2.68.76-6.13.68-8.29-.93a8.24,8.24,0,0,1-3.14-6.54v.12a8.24,8.24,0,0,1-3.14,6.55c-2.16,1.61-5.61,1.68-8.29.93-3.15-.88-4.87-2-5.43-4.41"/><path class="cls-1" d="M551.49,447.2c0,2.79-5.14,12.11-11.49,12.11S528.51,450,528.51,447.2c0-4.24,5.14-3.91,11.49-3.91S551.49,443,551.49,447.2Z"/></svg>
